X: 1
T: Naia's Waltz
C: Corwin Zekley (2019)
R: waltz
M: 3/4
L: 1/8
K: Dm
D2 E2 ||:"Dm" F4 EF |"Edim" G4 FG |"F" A4 c2 |"Bb" d2 c3 B |
"F" A4 A2 | B3 A GF |"C" G4 G2 |1 "C#dim" F4 E2 :|2 "Am" A4 c2 ||
"Bb"d2 a2 gf |"C" g3 f ed |"Am" c2 A2 c2 |"Bb" d6 |
"Bb"d2 a2 gf |"C" g3 f gc' |"Dm" a6-|a2 f2 e2 |
"Bb"d2 a2 gf |"C" g3 f ed |"Dm" a3 g fe |"G" g4 |
["usual ending" "Bb" f4 ed |"Am" c2 A2 c2 |"G" d6-|d2  |]
["last time through" "Bb" f4 ed |"Am" c2 A2 c2 |"Gm" d6-|"Dm"d2 |]

